!!!OTL: Die Mordeltern Frau Wirtin haben Sie die Gewalt,
!!!ARE: Europa, Mitteleuropa, Deutschland (), Thueringen
!!!YOR: 4, S. 312
!!    1911 gedruckt in Jena
!!!SCT: Q0085j
!!!YEM: Copyright 1995, estate of Helmut Schaffrath.
**kern
*ICvox
*Ivox
*M3/4
*k[f#]
*G:
{8d
=1
8d
8b
4b
8a
8g
=2
8a
8a
4.a}
{8d
=3
8d
8cc
4cc
8b
8a
=4
8g
8b
4.b}
{8g
=5
8g
8dd
4.dd
8b
=6
8cc
8ee
4.ee}
{8gg
=7
8ff#
8ee
4dd
8g
8b
=8
4a
4.g}
==
!!!AGN: Ballade, Habgier, Mord, Reue, Selbstmord
!!!ONB: ESAC (Essen Associative Code) Database: BALLADE
!!!AMT: simple triple
!!!AIN: vox
!!!EED: Helmut Schaffrath
!!!EEV: 1.0
*-
